!!!OTL: 743c. Abschied vom Liebchen.
!!!ARE: Europa, Mitteleuropa, Deutschland
!!!SCT: E0743B
!!!TXL: @@DE
!!!YEM: Copyright 1995, estate of Helmut Schaffrath.
**kern	**text
*ICvox	*
*M4/4	*
*met(c)	*
*k[b-]	*
*F:	*
=1	=1
!LO:TX:a:t=Leonh. Lechner 1577.	!
4r	.
{4f	Ach
4f	Lieb,
4g	ich
=2	=2
2a	muß
2cc	dich
=3	=3
2b-	laſ-
2a	-ſen!
=4	=4
4r}	.
{4a	ich
4cc	fahr
4cc	da-
=5	=5
2g	-hin
2a	mein
=6	=6
2f	Stra-
2e	-ßen,
=7	=7
4r}	.
{4f	bringt
4g	meinem
4f	.
=8	=8
4e	Her-
4f	-ʒen
2g	Pein.
=9	=9
4r}	.
{4f	Wie
4f	könnts
4g	mir
=10	=10
2a	üb-
2cc	-ler
=11	=11
2b-	gfal-
2a	-len,
=12	=12
4r}	.
{4a	denn
4cc	ſo
4cc	die
=13	=13
2g	Liebſt
2a	ob
=14	=14
2f	Al-
2e	-len
=15	=15
4r}	.
{4e	von
4f	mir
4g	ſo
=16	=16
(4a	muß
8gL	.
8fJ	.
4g)	.
4b-	ge-
=17	=17
(4.a	-ſchei-
8f	.
4g)	.
4g	-det
=18	=18
1a}	ſein.
==	==
!!!AGN: Abschieds - Lied, Liebe
!!!ONB: ESAC (Essen Associative Code) Database: ERK2
!!!AMT: simple quadruple
!!!AIN: vox
!!!EED: Helmut Schaffrath
!!!EEV: 1.0
!!!GTL: Abschieds- und Wanderlieder
!!!URL-scan: https://rosdok.uni-rostock.de/mcrviewer/recordIdentifier/rosdok_ppn745177662/iview2/phys_0552.iview2?x=146.95415166625367&y=1215.8285636687651&scale=0.7029437510502773&rotation=0&layout=singlePageLayout
!!!ENC: Anna Maria Matuszewska
!!!EEV: 2024/12/16
*-	*-
